api/public/assets/img/ico_door.svg

<svg height="105" viewBox="0 0 107 105" width="107" xmlns="http://www.w3.org/2000/svg"><g fill="none" fill-rule="evenodd"><g fill="#171717"><path d="m75.2539062 0h-48c-4.4182779 0-8 3.581722-8 8v89c0 4.418278 3.5817221 8 8 8h48c4.418278 0 8-3.581722 8-8v-89c0-4.418278-3.581722-8-8-8zm-48 4h48c2.209139 0 4 1.790861 4 4v89c0 2.209139-1.790861 4-4 4h-48c-2.2091389 0-4-1.790861-4-4v-89c0-2.209139 1.7908611-4 4-4z" fill-rule="nonzero"/><circle cx="70.753906" cy="52.5" r="3.5"/><rect height="3" rx="1.5" width="8" x="64.253906" y="51"/><path d="m104.988281 101c1.10457 0 2 .895431 2 2 0 1.054362-.815878 1.918165-1.850737 1.994514l-.149263.005486h-102.988281c-1.1045695 0-2-.895431-2-2 0-1.054362.81587779-1.918165 1.85073766-1.994514l.14926234-.005486z" fill-rule="nonzero"/></g><rect fill="#44b244" height="39.9" rx="2.1" width="30.45" x="29" y="33"/><g transform="translate(34.25 39.3)"><circle cx="3.65715" cy="3.65715" fill="#fff" fill-rule="nonzero" r="3.65715"/><path d="m4.75842883 2.24024202c.10927394-.15284251.32176131-.18816181.47460382-.07888786.14520038.10381024.18433607.30077061.09419789.45125046l-.01531003.02335336-1.78828188 2.50128693c-.11537468.16137566-.34200152.18893404-.49239084.0652959l-.02001748-.01779855-1.06630245-1.02417782c-.13550601-.1301528-.13984564-.34551181-.00969284-.48101781.12330264-.12837411.32307846-.13902549.45898258-.0291261l.02203522.01943326.78264778.75155551z" fill="#44b244" transform="matrix(.99254615 .12186934 -.12186934 .99254615 .476437 -.412197)"/></g><rect fill="#fff" fill-rule="nonzero" height="1.575" rx=".7875" width="10.5" x="43.175" y="42.45"/><g transform="translate(34.25 49.8)"><circle cx="3.65715" cy="3.65715" fill="#fff" fill-rule="nonzero" r="3.65715"/><path d="m4.75842883 2.24024202c.10927394-.15284251.32176131-.18816181.47460382-.07888786.14520038.10381024.18433607.30077061.09419789.45125046l-.01531003.02335336-1.78828188 2.50128693c-.11537468.16137566-.34200152.18893404-.49239084.0652959l-.02001748-.01779855-1.06630245-1.02417782c-.13550601-.1301528-.13984564-.34551181-.00969284-.48101781.12330264-.12837411.32307846-.13902549.45898258-.0291261l.02203522.01943326.78264778.75155551z" fill="#44b244" transform="matrix(.99254615 .12186934 -.12186934 .99254615 .476437 -.412197)"/></g><rect fill="#fff" fill-rule="nonzero" height="1.575" rx=".7875" width="10.5" x="43.175" y="52.95"/><g transform="translate(34.25 60.3)"><circle cx="3.65715" cy="3.65715" fill="#fff" fill-rule="nonzero" r="3.65715"/><path d="m4.75842883 2.24024202c.10927394-.15284251.32176131-.18816181.47460382-.07888786.14520038.10381024.18433607.30077061.09419789.45125046l-.01531003.02335336-1.78828188 2.50128693c-.11537468.16137566-.34200152.18893404-.49239084.0652959l-.02001748-.01779855-1.06630245-1.02417782c-.13550601-.1301528-.13984564-.34551181-.00969284-.48101781.12330264-.12837411.32307846-.13902549.45898258-.0291261l.02203522.01943326.78264778.75155551z" fill="#44b244" transform="matrix(.99254615 .12186934 -.12186934 .99254615 .476437 -.412197)"/></g><rect fill="#fff" fill-rule="nonzero" height="1.575" rx=".7875" width="10.5" x="43.175" y="63.45"/></g></svg>

<?xml version="1.0" encoding="UTF-8"?>
<svg width="107px" height="105px" viewBox="0 0 107 105" version="1.1" xmlns="http://www.w3.org/2000/svg" xmlns:xlink="http://www.w3.org/1999/xlink">
    <!-- Generator: sketchtool 63.1 (101010) - https://sketch.com -->
    <title>88BA4564-D293-4358-BEB3-C847CDF99411</title>
    <desc>Created with sketchtool.</desc>
    <g id="Page-1" stroke="none" stroke-width="1" fill="none" fill-rule="evenodd">
        <g id="covid-V2" transform="translate(-667.000000, -1258.000000)">
            <g id="CCM" transform="translate(248.000000, 999.000000)">
                <g id="aidée" transform="translate(0.000000, 86.000000)">
                    <g id="3-steps" transform="translate(0.000000, 172.000000)">
                        <g id="Group-16" transform="translate(352.000000, 1.000000)">
                            <g id="Group-14" transform="translate(67.000000, 0.000000)">
                                <g id="Step-1-Copy" fill="#171717">
                                    <path d="M75.2539062,0 L27.2539062,0 C22.8356283,0 19.2539062,3.581722 19.2539062,8 L19.2539062,97 C19.2539062,101.418278 22.8356283,105 27.2539062,105 L75.2539062,105 C79.6721842,105 83.2539062,101.418278 83.2539062,97 L83.2539062,8 C83.2539062,3.581722 79.6721842,0 75.2539062,0 Z M27.2539062,4 L75.2539062,4 C77.4630452,4 79.2539062,5.790861 79.2539062,8 L79.2539062,97 C79.2539062,99.209139 77.4630452,101 75.2539062,101 L27.2539062,101 C25.0447673,101 23.2539062,99.209139 23.2539062,97 L23.2539062,8 C23.2539062,5.790861 25.0447673,4 27.2539062,4 Z" id="Rectangle" fill-rule="nonzero"></path>
                                    <g id="Group-8" transform="translate(64.253906, 49.000000)">
                                        <circle id="Oval-Copy" cx="6.5" cy="3.5" r="3.5"></circle>
                                        <rect id="Rectangle" x="0" y="2" width="8" height="3" rx="1.5"></rect>
                                    </g>
                                    <path d="M104.988281,101 C106.092851,101 106.988281,101.895431 106.988281,103 C106.988281,104.054362 106.172403,104.918165 105.137544,104.994514 L104.988281,105 L2,105 C0.8954305,105 0,104.104569 0,103 C0,101.945638 0.815877791,101.081835 1.85073766,101.005486 L2,101 L104.988281,101 Z" id="Path-2" fill-rule="nonzero"></path>
                                </g>
                                <g id="Group-10" transform="translate(29.000000, 33.000000)">
                                    <rect id="Rectangle" fill="#44B244" x="0" y="0" width="30.45" height="39.9" rx="2.1"></rect>
                                    <g id="Group-11" transform="translate(5.250000, 6.300000)">
                                        <g id="Group-4">
                                            <g id="Group-6">
                                                <g id="Group-2">
                                                    <circle id="Oval" fill="#FFFFFF" fill-rule="nonzero" cx="3.65715" cy="3.65715" r="3.65715"></circle>
                                                    <path d="M4.75842883,2.24024202 C4.86770277,2.08739951 5.08019014,2.05208021 5.23303265,2.16135416 C5.37823303,2.2651644 5.41736872,2.46212477 5.32723054,2.61260462 L5.31192051,2.63595798 L3.52363863,5.13724491 C3.40826395,5.29862057 3.18163711,5.32617895 3.03124779,5.20254081 L3.01123031,5.18474226 L1.94492786,4.16056444 C1.80942185,4.03041164 1.80508222,3.81505263 1.93523502,3.67954663 C2.05853766,3.55117252 2.25831348,3.54052114 2.3942176,3.65042053 L2.41625282,3.66985379 L3.1989006,4.4214093 L4.75842883,2.24024202 Z" id="Path-5" fill="#44B244" transform="translate(3.607895, 3.688737) rotate(7.000000) translate(-3.607895, -3.688737) "></path>
                                                </g>
                                                <rect id="Rectangle" fill="#FFFFFF" fill-rule="nonzero" x="8.925" y="3.15" width="10.5" height="1.575" rx="0.7875"></rect>
                                            </g>
                                        </g>
                                        <g id="Group-4-Copy-3" transform="translate(0.000000, 10.500000)">
                                            <g id="Group-6">
                                                <g id="Group-2">
                                                    <circle id="Oval" fill="#FFFFFF" fill-rule="nonzero" cx="3.65715" cy="3.65715" r="3.65715"></circle>
                                                    <path d="M4.75842883,2.24024202 C4.86770277,2.08739951 5.08019014,2.05208021 5.23303265,2.16135416 C5.37823303,2.2651644 5.41736872,2.46212477 5.32723054,2.61260462 L5.31192051,2.63595798 L3.52363863,5.13724491 C3.40826395,5.29862057 3.18163711,5.32617895 3.03124779,5.20254081 L3.01123031,5.18474226 L1.94492786,4.16056444 C1.80942185,4.03041164 1.80508222,3.81505263 1.93523502,3.67954663 C2.05853766,3.55117252 2.25831348,3.54052114 2.3942176,3.65042053 L2.41625282,3.66985379 L3.1989006,4.4214093 L4.75842883,2.24024202 Z" id="Path-5" fill="#44B244" transform="translate(3.607895, 3.688737) rotate(7.000000) translate(-3.607895, -3.688737) "></path>
                                                </g>
                                                <rect id="Rectangle" fill="#FFFFFF" fill-rule="nonzero" x="8.925" y="3.15" width="10.5" height="1.575" rx="0.7875"></rect>
                                            </g>
                                        </g>
                                        <g id="Group-4-Copy-4" transform="translate(0.000000, 21.000000)">
                                            <g id="Group-6">
                                                <g id="Group-2">
                                                    <circle id="Oval" fill="#FFFFFF" fill-rule="nonzero" cx="3.65715" cy="3.65715" r="3.65715"></circle>
                                                    <path d="M4.75842883,2.24024202 C4.86770277,2.08739951 5.08019014,2.05208021 5.23303265,2.16135416 C5.37823303,2.2651644 5.41736872,2.46212477 5.32723054,2.61260462 L5.31192051,2.63595798 L3.52363863,5.13724491 C3.40826395,5.29862057 3.18163711,5.32617895 3.03124779,5.20254081 L3.01123031,5.18474226 L1.94492786,4.16056444 C1.80942185,4.03041164 1.80508222,3.81505263 1.93523502,3.67954663 C2.05853766,3.55117252 2.25831348,3.54052114 2.3942176,3.65042053 L2.41625282,3.66985379 L3.1989006,4.4214093 L4.75842883,2.24024202 Z" id="Path-5" fill="#44B244" transform="translate(3.607895, 3.688737) rotate(7.000000) translate(-3.607895, -3.688737) "></path>
                                                </g>
                                                <rect id="Rectangle" fill="#FFFFFF" fill-rule="nonzero" x="8.925" y="3.15" width="10.5" height="1.575" rx="0.7875"></rect>
                                            </g>
                                        </g>
                                    </g>
                                </g>
                            </g>
                        </g>
                    </g>
                </g>
            </g>
        </g>
    </g>
</svg>
